symbols/web/wifi_protected_setup/materialsymbolsrounded/wifi_protected_setup_wght700gradN25_24px.svg

<svg xmlns="http://www.w3.org/2000/svg" height="24" width="24"><path d="M16.925 16.75q.075-.325.088-.637.012-.313.012-.663 0-2.2-.963-4.038Q15.1 9.575 13.45 8.35l-1.2 1.2q-.375.375-.863.175-.487-.2-.487-.725V2.825q0-.35.213-.563.212-.212.562-.212h6.175q.525 0 .725.475.2.475-.175.85L17.2 4.6q1.45 1.275 2.3 3.075.85 1.8.85 3.925 0 1.575-.512 3-.513 1.425-1.388 2.6-.475.65-1.062.5-.588-.15-.463-.95Zm-10.75 5.175q-.525 0-.737-.463-.213-.462.162-.837L6.8 19.4q-1.45-1.3-2.287-3.1-.838-1.8-.838-3.9 0-1.6.5-3.025.5-1.425 1.375-2.6.425-.575 1.025-.425.6.15.525.875-.05.325-.087.65-.038.325-.038.675 0 2.2.988 4.037.987 1.838 2.612 3.038l1.2-1.2q.375-.375.85-.163.475.213.475.738v6.15q0 .35-.212.562-.213.213-.563.213Z"/></svg>

<svg xmlns="http://www.w3.org/2000/svg" height="24" width="24"><path d="M16.925 16.75Q17 16.425 17.013 16.113Q17.025 15.8 17.025 15.45Q17.025 13.25 16.062 11.412Q15.1 9.575 13.45 8.35L12.25 9.55Q11.875 9.925 11.387 9.725Q10.9 9.525 10.9 9V2.825Q10.9 2.475 11.113 2.262Q11.325 2.05 11.675 2.05H17.85Q18.375 2.05 18.575 2.525Q18.775 3 18.4 3.375L17.2 4.6Q18.65 5.875 19.5 7.675Q20.35 9.475 20.35 11.6Q20.35 13.175 19.838 14.6Q19.325 16.025 18.45 17.2Q17.975 17.85 17.388 17.7Q16.8 17.55 16.925 16.75ZM6.175 21.925Q5.65 21.925 5.438 21.462Q5.225 21 5.6 20.625L6.8 19.4Q5.35 18.1 4.513 16.3Q3.675 14.5 3.675 12.4Q3.675 10.8 4.175 9.375Q4.675 7.95 5.55 6.775Q5.975 6.2 6.575 6.35Q7.175 6.5 7.1 7.225Q7.05 7.55 7.013 7.875Q6.975 8.2 6.975 8.55Q6.975 10.75 7.963 12.587Q8.95 14.425 10.575 15.625L11.775 14.425Q12.15 14.05 12.625 14.262Q13.1 14.475 13.1 15V21.15Q13.1 21.5 12.888 21.712Q12.675 21.925 12.325 21.925Z"/></svg>
